X: 19897
T: Jig For John
R: jig
M: 6/8
K: Gdorian
|:B3BAF|GFD CDF|GD AD BD|cBA d2g|
gfd cfd|cBA GFD|GAB BAF|cAF G3:|
|:d3dDc|BAG FED|DFA DFA|AB2 BAG|
dDd dcB|AGF EFD|DFA DF/G/A|BAG A3:|

